X:1
T:Title
%%score { ( 1 4 ) | ( 2 3 ) }
L:1/8
M:6/8
K:G
V:1 treble nm="Grand Piano"
V:4 treble 
V:2 bass 
V:3 bass 
V:1
 z3 z2[Q:1/4=75] .[G,B,D] | [DB]>[Ec][DB] [CA][B,G][B,D] | z3 z2 G | d>ed B>[DAc][DGB] | %4
[M:5/8] [DFA]-[DFA]- [DFA]3 |[M:1/8] D/ z/ |[M:3/4] [DB]>[Ec] [DB][CA] [B,G][B,D] | %7
 [G,CE][G,B,D]- [G,B,D]3 .[G,DG] | [G,CE]>[Ed] [Ec][DB]- [DB]/[Ec]/[CA] | %9
[M:5/8] [B,G]-[B,G]- [B,G]3 |[M:1/8] [Gd] |[M:3/4] [Fd]>[FA] [FA][FA] [GB][Ac] | %12
 [Ac][GB]- [GB]3 [Gd] | [Fd]>[FA] [FA][Fe] [Fd][Fc] |[M:5/8] [GB]-[GB]- [GB]3 |[M:1/8] D/ z/ | %16
[M:3/4] [DB]>[Ec] [DB][CA] [B,G][B,D] | [G,CE][G,B,D]- [G,B,D]3 .[G,DG] | %18
 [G,CE]>[Ed] [Ec][DB]- [DB]/[Ec]/[CA] |[M:5/8] [B,G]-[B,G]- [B,G]3 |] %20
V:2
 z3 z z z/ G/ | [G,,G,]>[G,,G,][G,,G,] [G,,G,][G,,G,][G,,G,] | [C,G,] [G,,G,]2- [G,,G,]2 [G,B,] | %3
 [G,B,G]>[G,CG][G,B,G] [G,DG]>G,[K:bass]G, |[M:5/8] D,-D,- D,3 |[M:1/8] z/ G/ | %6
[M:3/4] [G,,G,]>[G,,G,] [G,,G,][G,,G,] [G,,G,][G,,G,] | C,G,,- G,,3 z/ F/ | %8
 C,>[C,G,] [C,G,][D,G,]- [D,G,]/[D,G,]/[D,F,] |[M:5/8] [G,,G,]-[G,,G,]- [G,,G,]3 |[M:1/8] [G,B,] | %11
[M:3/4] [D,A,]>[D,D] [D,D][D,D] [D,D][D,D] | [G,D][G,D]- [G,D]3 [G,B,] | %13
 [D,A,]>[D,D] [D,D][D,C] [D,B,][D,A,] |[M:5/8] G,-G,- G,3 |[M:1/8] z/ G/ | %16
[M:3/4] [G,,G,]>[G,,G,] [G,,G,][G,,G,] [G,,G,][G,,G,] | C,G,,- G,,3 z/ F/ | %18
 C,>[C,G,] [C,G,][D,G,]- [D,G,]/[D,G,]/[D,F,] |[M:5/8] [G,,G,]-[G,,G,]- [G,,G,]3 |] %20
V:3
 z3 z2 G,, | x6 | x6 | x5[K:bass] x |[M:5/8] x5 |[M:1/8] G,, |[M:3/4] x6 | z2 z2 z B,, | x6 | %9
[M:5/8] x5 |[M:1/8] x |[M:3/4] x6 | x6 | x6 |[M:5/8] x5 |[M:1/8] G,, |[M:3/4] x6 | z2 z2 z B,, | %18
 x6 |[M:5/8] x5 |] %20
V:4
 x6 | x6 | [CE] [B,D]2- [B,D]2 z/ B/ | x6 |[M:5/8] x5 |[M:1/8] [G,B,] |[M:3/4] x6 | x6 | x6 | %9
[M:5/8] x5 |[M:1/8] x |[M:3/4] x6 | x6 | x6 |[M:5/8] x5 |[M:1/8] [G,B,] |[M:3/4] x6 | x6 | x6 | %19
[M:5/8] x5 |] %20

